svg/question_negative.svg

<?xml version="1.0" encoding="UTF-8" standalone="no"?>
<!-- Created with Inkscape (http://www.inkscape.org/) -->
<svg id="svg8" xmlns:rdf="http://www.w3.org/1999/02/22-rdf-syntax-ns#" xmlns="http://www.w3.org/2000/svg" xmlns:osb="http://www.openswatchbook.org/uri/2009/osb" height="48" width="48" version="1.1" xmlns:cc="http://creativecommons.org/ns#" viewBox="0 0 12.7 12.7" xmlns:dc="http://purl.org/dc/elements/1.1/">
 <title id="title4753">UIO-icon</title>
 <metadata id="metadata5">
  <rdf:RDF>
   <cc:Work rdf:about="">
    <dc:format>image/svg+xml</dc:format>
    <dc:type rdf:resource="http://purl.org/dc/dcmitype/StillImage"/>
    <dc:title>UIO-icon</dc:title>
    <dc:creator>
     <cc:Agent>
      <dc:title>Joaquín Urbano</dc:title>
     </cc:Agent>
    </dc:creator>
    <dc:rights>
     <cc:Agent>
      <dc:title>GPL</dc:title>
     </cc:Agent>
    </dc:rights>
   </cc:Work>
  </rdf:RDF>
 </metadata>
 <g id="layer1" fill="#333" transform="translate(0,-284.3)">
  <path id="rect976" d="m0 0v48h48v-48zm24.084 12.547c1.9409 0 3.451 0.52478 4.5293 1.5723 1.0886 1.0372 1.6328 2.4636 1.6328 4.2812 0 1.7971-0.83245 3.5687-2.4961 5.3145l-1.6777 1.6641c-0.74967 0.83182-1.125 2.0289-1.125 3.5898h-2.8496c0.020539-1.2221 0.15928-2.1879 0.41602-2.8965 0.25674-0.70859 0.77957-1.4948 1.5703-2.3574l2.0195-2.0781c0.86263-0.9756 1.293-2.0232 1.293-3.1426-4e-8 -1.0783-0.28284-1.9214-0.84766-2.5273-0.56482-0.61617-1.3866-0.92383-2.4648-0.92383-1.0475 0-1.8887 0.27748-2.5254 0.83203s-0.95508 1.2979-0.95508 2.2324h-2.8496c0.020539-1.6636 0.61104-3.0029 1.7715-4.0195 1.1707-1.0269 2.6896-1.541 4.5586-1.541zm-0.42969 19.672c0.55455 0 0.97417 0.15821 1.2617 0.47656 0.28754 0.30808 0.43164 0.69413 0.43164 1.1562 0 0.46212-0.1441 0.84621-0.43164 1.1543-0.28754 0.29781-0.70717 0.44727-1.2617 0.44727-0.55455 0-0.97613-0.14945-1.2637-0.44727-0.27727-0.30808-0.41602-0.69217-0.41602-1.1543-4e-8 -0.46212 0.13874-0.84817 0.41602-1.1562 0.28754-0.31835 0.70912-0.47656 1.2637-0.47656z" fill-rule="evenodd" transform="matrix(.26458 0 0 .26458 0 284.3)"/>
 </g>
</svg>

<svg width="48" height="48" viewBox="0 0 48 48" fill="none" xmlns="http://www.w3.org/2000/svg">
<path fill-rule="evenodd" clip-rule="evenodd" d="M0 0V47.9994H47.9994V0H0ZM24.0837 12.5468C26.0246 12.5468 27.5347 13.0716 28.6129 14.1191C29.7015 15.1563 30.2457 16.5827 30.2457 18.4003C30.2457 20.1973 29.4133 21.9689 27.7497 23.7147L26.072 25.3788C25.3223 26.2106 24.947 27.4077 24.947 28.9685H22.0974C22.118 27.7465 22.2567 26.7807 22.5134 26.0721C22.7702 25.3635 23.293 24.5773 24.0837 23.7147L26.1032 21.6366C26.9658 20.661 27.3962 19.6135 27.3962 18.4941C27.3962 17.4158 27.1133 16.5727 26.5485 15.9668C25.9837 15.3506 25.1619 15.043 24.0838 15.043C23.0363 15.043 22.1951 15.3205 21.5584 15.875C20.9217 16.4295 20.6033 17.1729 20.6033 18.1074H17.7538C17.7743 16.4438 18.3648 15.1045 19.5252 14.0879C20.6959 13.061 22.2148 12.5469 24.0838 12.5469L24.0837 12.5468ZM23.654 32.2186C24.2086 32.2186 24.6282 32.3768 24.9157 32.6952C25.2032 33.0032 25.3473 33.3893 25.3473 33.8513C25.3473 34.3135 25.2032 34.6975 24.9157 35.0056C24.6282 35.3034 24.2085 35.4529 23.654 35.4529C23.0995 35.4529 22.6779 35.3034 22.3903 35.0056C22.1131 34.6975 21.9743 34.3135 21.9743 33.8513C21.9743 33.3892 22.1131 33.0032 22.3903 32.6952C22.6779 32.3768 23.0994 32.2186 23.654 32.2186Z" fill="#333333"/>
</svg>
